X:1
T:I Long to Be There
T:I Long to Be There
T:S. J. Smucker
T:S. J. Smucker, 1902
T:Public Domain Courtesy of the Cyber Hymnal™
C:S. J. Smucker
Z:Public Domain
Z:Courtesy of the Cyber Hymnal™
%%score ( 1 2 ) ( 3 4 )
L:1/8
Q:1/4=100
M:6/8
K:Eb
V:1 treble 
V:2 treble 
V:3 bass 
V:4 bass 
V:1
 [EB] | [EB][EB][EB] [EB]2 [EB] | [G-e]3 [GB]2 [GB] | [GB][GB][GB] ([EG][DF])E | %4
w: 1.~I’ve|read of a world of|beau- Where there|is no gloom- y * night,|
w: 2.~I’ve|read of its flow- ing|ri- That bursts|from be- neath the * throne,|
w: 3.~I|long for that world of|li- To breathe|in its bal- my * air,|
 [DF]3- [DF]2 [DF] | [EG][EG][EG] [FA][EG][FA] | ([G-B]3 [Ge]2) [Ge] | %7
w: While * love|is the main- spring of du-|ty, God is|
w: And * beau-|ti- ful tre- es that ev-|er found on|
w: To * walk|with the La- mb in whi-|te, sing with|
 [Fd][Ec][DB] ([Ec][Fd])[Fc] | [DB]3- [DB]2 ||"^Refrain" [GB] | ([GB]3 [EG]2) [GB] | %11
w: the fountain of light. * *||||
w: its banks a- lone. * I|long, *|I|long, * I|
w: the an- gels there. * *||||
 ([Ae]3 [Bd]2) [Ac] | ([GB]2 [Ac]) [GB]2 [EG] | [DF]3- [DF]2 [DF] | ([E-G]3 [EB]2) [EG] | %15
w: ||||
w: long * to|be * there; I|long, * I|long, * I|
w: ||||
 ([E-A]3 !fermata![Ec]2) [Ee] | (B2 G) [EG]2 [DF] | E3- E2 |] %18
w: |||
w: long * to|be * there. *||
w: |||
V:2
 x | x6 | x6 | x5 E | x6 | x6 | x6 | x6 | x5 || x | x6 | x6 | x6 | x6 | x6 | x6 | E3 x3 | E3- E2 |] %18
V:3
 [E,G,] | [E,G,][E,G,][E,G,] [E,G,]2 [E,G,] | [E,-B,]3 [E,E]2 [E,E] | %3
 [E,E][E,E][E,E] (B,A,)[E,G,] | [B,,B,]3- [B,,B,]2 [B,,B,] | %5
 [E,B,][E,B,][E,B,] [D,B,][D,B,][B,,B,] | ([E,B,]3 [C,C]2) [C,C] | %7
 [F,B,][F,=A,][F,B,] ([F,A,][F,A,])[F,A,] | [B,,B,]3- [B,,B,]2 || [E,E] | ([E,E]3 [E,B,]2) [E,E] | %11
 ([A,,-C]3 [A,,E]2) [A,,E] | [E,E]3 [E,E]2 [E,B,] | [B,,B,]3 [B,,B,]2 [B,,B,] | %14
 ([E,B,]3 [_D,G,]2) [D,B,] | ([C,A,-]3 [A,,A,]2) [A,,A,] | [B,,G,]3 [B,,B,]2 [B,,A,] | %17
 [E,G,]3- [E,G,]2 |] %18
V:4
 x | x6 | x6 | x3 E,2 x | x6 | x6 | x6 | x6 | x5 || x | x6 | x6 | x6 | x6 | x6 | x6 | x6 | x5 |] %18

